X:1
T:Leave, Shepherds, Leave Your Peaceful Flocks
T:French carol, translated by W. K. Simpson
T:Leave, Shepherds, Leave Your Peaceful Flocks
T:Courtesy of the Cyber Hymnal&amp;#8482;
T:Courtesy of the Cyber Hymnal&amp;#8482;
C:French carol, translated by W. K. Simpson
Z:Courtesy of the Cyber Hymnal&#8482;
%%score ( 1 2 ) ( 3 4 )
L:1/8
M:2/2
K:F
V:1 treble 
V:2 treble 
V:3 bass 
V:4 bass 
V:1
 [FB]2"^Allegro vivace" | A4 (z2 E2) x2 | [DF]6 C2 | [CF]2 [CG]2 [CA]2 [FB]2 | %4
w: 1.~Leave,|shep- *|* your|ful flocks a- grazing!|
w: 2.~There,|low- *|* with-|a man- ger narrow,|
w: 3.~Kings|from *|* His|will guide thee truly!|
w: 4.~Who|canst *|* things|ly, hearts en- shrine|
 ([Ec]4 [Fc]2) [FB]2 | [FA]4 [EG]4 x2 | F6 [CG]2 | [CA]2 [CG]2 [CA]2 [FB]2 | (F4 E2) [CF]2 | %9
w: No * long-|er grieve,|but come,|come a- way! Come|and * a-|
w: A * love-|ly maid|and In-|thou shalt see! His|ten- * der|
w: Where * He|doth rest,|in love|faith draw near: Our|ris- * ing|
w: Thine * ar-|dors sweet|and fair!|peace is his For|peace * is|
 [DF]4 [DG]4 | C6 [A,D]2 | [CE]2 [DF]2 [DG]2 [CE]2 | [CF]4 [DF]2 [EG]2 | [FA]2 [DG]2 [FA]2 [FB]2 | %14
w: your tears|all changed|prais- ing; Of Him|the heav’n- ly|King, O sing, O|
w: hath sought|thee in|sor- row— Thy dark-|ness to re-|move! He came, to|
w: re- ceives|thy hom-|du- ly! O bring|to Him each|one— Each one! Each|
w: that through|Thee liv-|pure- ly! And add-|ed un- to|this, all joy, and|
 (E4 z2) f2 x2 | z2 E2 z2 f2 x2 | z2 E2 F2 [Ff]2 | [Fe]2 [Fd]2 [Fc]2 [FB]2 | [FA]4 [EG]4 x2 | F6 |] %20
w: sing Your|* born|* * hap-|* day. * *|||
w: prove A|* Shep-|* * care|* thee! * *|||
w: one! Your|* and|* * gold|* myrrh! * *|||
w: bliss— Since|* sent|* * Sav-|* here! * *|||
V:2
 x2 | F6 G4 | x6 C2 | x8 | x8 | x10 | F6 x2 | x8 | c6 x2 | x8 | C6 x2 | x8 | x8 | x8 | c6 F4 | %15
w: |herds, leave|peace-||||O||dore,||to||||Sav- ior|
w: |ly laid,|in||||fant||love||thy||||lov- ing|
w: |the east!|star||||and||Sun||age||||in- cense|
w: |do all|sure-||||For||His||eth||||God hath|
 c6 F4 | c6 x2 | x8 | x10 | F6 |] %20
w: this *|py||||
w: herd’s *|for||||
w: your *|and||||
w: His *|ior||||
V:3
 [B,D]2 | [F,C]4 [C,C]4 x2 | [D,A,]6 [E,G,]2 | [F,A,]2 [E,G,]2 F,2 [D,F,]2 | %4
 ([C,G,]4 [F,A,]2) [B,,D]2 | C,4 z2 G,2 x2 | [F,A,]6 [E,G,]2 | F,2 [E,G,]2 F,2 [D,F,]2 | %8
 [C,G,]6 [F,A,]2 | [D,A,]4 G,2 F,2 | ([C,E,]2 [D,F,]2 [E,G,]2) [F,A,]2 | %11
 [E,G,]2 [D,A,]2 [B,,G,]2 [C,G,]2 | (F,2 E,2) [D,A,]2 [C,C]2 | [F,C]2 [G,B,]2 [F,C]2 [D,F,]2 | %14
 [C,G,]4 [F,A,]4 x2 | z2 [C,G,]2 [F,A,]4 x2 | z2 [G,B,]2 [A,C]2 [D,A,]2 | %17
 [C,A,]2 [B,,B,]2 [A,,C]2 [B,,D]2 | C,4 z2 G,2 x2 | [F,A,]6 |] %20
V:4
 x2 | x10 | x8 | x4 F,2 x2 | x8 | C6 C,4 | x8 | F,2 F,2 x4 | x8 | x4 B,,4 | x8 | x8 | A,4 x4 | x8 | %14
 x10 | x10 | x8 | x8 | C6 C,4 | x6 |] %20

